lib/svg/grabber.svg

<svg xmlns="http://www.w3.org/2000/svg" width="8" height="16" viewBox="0 0 8 16"><path d="M8 4v1H0V4h8zM0 8h8V7H0v1zm0 3h8v-1H0v1z"/></svg>

<?xml version="1.0" encoding="UTF-8" standalone="no"?>
<svg width="8px" height="16px" viewBox="0 0 8 16" version="1.1" xmlns="http://www.w3.org/2000/svg" xmlns:xlink="http://www.w3.org/1999/xlink">
    <!-- Generator: Sketch 3.8.3 (29802) - http://www.bohemiancoding.com/sketch -->
    <title>grabber</title>
    <desc>Created with Sketch.</desc>
    <defs></defs>
    <g id="Octicons" stroke="none" stroke-width="1" fill="none" fill-rule="evenodd">
        <g id="grabber" fill="#000000">
            <path d="M8,4 L8,5 L0,5 L0,4 L8,4 L8,4 Z M0,8 L8,8 L8,7 L0,7 L0,8 L0,8 Z M0,11 L8,11 L8,10 L0,10 L0,11 L0,11 Z" id="Shape"></path>
        </g>
    </g>
</svg>
